Numix-GalliumOS/64/mimetypes/application-x-rar.svg

<svg xmlns="http://www.w3.org/2000/svg" xmlns:xlink="http://www.w3.org/1999/xlink" width="64px" height="64px" viewBox="0 0 64 64" version="1.1">
<g id="surface1">
<path style=" stroke:none;fill-rule:nonzero;fill:rgb(75.686275%,58.431373%,32.54902%);fill-opacity:1;" d="M 10.671875 0 C 9.296875 0 8 1.355469 8 2.789062 L 8 61.210938 C 8 62.566406 9.375 64 10.671875 64 L 53.328125 64 C 54.625 64 56 62.566406 56 61.210938 L 56 18 L 38 0 Z M 10.671875 0 "/>
<path style=" stroke:none;fill-rule:nonzero;fill:rgb(0%,0%,0%);fill-opacity:0.196078;" d="M 8 48 L 8 61.335938 C 8 62.632812 9.375 64 10.664062 64 L 53.335938 64 C 54.625 64 56 62.632812 56 61.335938 L 56 48 Z M 8 48 "/>
<path style=" stroke:none;fill-rule:nonzero;fill:rgb(100%,100%,100%);fill-opacity:1;" d="M 21.128906 50.78125 C 21.820312 50.78125 22.445312 50.847656 23.003906 50.996094 C 23.5625 51.136719 24.046875 51.359375 24.449219 51.664062 C 24.851562 51.957031 25.164062 52.335938 25.371094 52.804688 C 25.59375 53.257812 25.699219 53.800781 25.699219 54.414062 C 25.699219 55.066406 25.558594 55.648438 25.273438 56.175781 C 24.984375 56.699219 24.507812 57.101562 23.851562 57.375 C 24.066406 57.6875 24.304688 58.03125 24.550781 58.417969 C 24.796875 58.785156 25.042969 59.179688 25.273438 59.601562 C 25.511719 60.003906 25.734375 60.414062 25.9375 60.832031 C 26.160156 61.242188 26.347656 61.628906 26.503906 62 L 23.980469 62 C 23.6875 61.285156 23.332031 60.59375 22.929688 59.9375 C 22.535156 59.273438 22.117188 58.597656 21.65625 57.914062 L 20.40625 57.914062 L 20.40625 62 L 18 62 L 18 51.070312 C 18.238281 51.019531 18.492188 50.980469 18.765625 50.9375 C 19.050781 50.898438 19.339844 50.867188 19.628906 50.847656 C 19.914062 50.832031 20.1875 50.808594 20.449219 50.800781 C 20.703125 50.785156 20.933594 50.785156 21.128906 50.785156 M 23.257812 54.398438 C 23.257812 53.816406 23.0625 53.386719 22.675781 53.109375 C 22.28125 52.835938 21.773438 52.699219 21.128906 52.699219 C 21.039062 52.699219 20.925781 52.707031 20.792969 52.714844 C 20.671875 52.714844 20.539062 52.730469 20.40625 52.753906 L 20.40625 56.082031 L 20.933594 56.082031 C 21.753906 56.082031 22.347656 55.945312 22.71875 55.65625 C 23.078125 55.359375 23.257812 54.941406 23.257812 54.398438 "/>
<path style=" stroke:none;fill-rule:nonzero;fill:rgb(0%,0%,0%);fill-opacity:0.196078;" d="M 42 18 L 56 32 L 56 18 Z M 42 18 "/>
<path style=" stroke:none;fill-rule:nonzero;fill:rgb(100%,100%,100%);fill-opacity:1;" d="M 33.738281 62 L 33.167969 59.4375 L 29.949219 59.4375 L 29.398438 62 L 26.898438 62 C 27.464844 59.8125 28.050781 57.824219 28.632812 56.035156 C 29.226562 54.226562 29.792969 52.515625 30.335938 50.90625 L 32.957031 50.90625 C 33.53125 52.535156 34.097656 54.257812 34.65625 56.082031 C 35.230469 57.898438 35.78125 59.871094 36.316406 62 L 33.738281 62 M 31.582031 53.058594 C 31.460938 53.476562 31.335938 53.871094 31.214844 54.257812 C 31.113281 54.628906 31.007812 55 30.902344 55.367188 C 30.8125 55.730469 30.71875 56.089844 30.628906 56.460938 C 30.546875 56.832031 30.472656 57.21875 30.390625 57.613281 L 32.757812 57.613281 C 32.683594 57.21875 32.601562 56.832031 32.527344 56.460938 C 32.445312 56.089844 32.355469 55.730469 32.25 55.367188 C 32.160156 55 32.058594 54.628906 31.9375 54.257812 C 31.839844 53.871094 31.714844 53.476562 31.582031 53.058594 "/>
<path style=" stroke:none;fill-rule:nonzero;fill:rgb(100%,100%,100%);fill-opacity:0.392157;" d="M 38 0 L 55.984375 18 L 40.757812 18 C 39.410156 18 38 16.574219 38 15.226562 Z M 38 0 "/>
<path style=" stroke:none;fill-rule:nonzero;fill:rgb(100%,100%,100%);fill-opacity:1;" d="M 40.679688 50.78125 C 41.371094 50.78125 41.996094 50.847656 42.554688 50.996094 C 43.113281 51.136719 43.597656 51.359375 44 51.664062 C 44.402344 51.957031 44.707031 52.335938 44.921875 52.804688 C 45.140625 53.257812 45.25 53.800781 45.25 54.414062 C 45.25 55.066406 45.109375 55.648438 44.820312 56.175781 C 44.535156 56.699219 44.058594 57.101562 43.390625 57.375 C 43.613281 57.6875 43.851562 58.03125 44.097656 58.417969 C 44.34375 58.785156 44.582031 59.179688 44.820312 59.601562 C 45.050781 60.003906 45.273438 60.414062 45.488281 60.832031 C 45.710938 61.242188 45.898438 61.628906 46.054688 62 L 43.53125 62 C 43.226562 61.285156 42.882812 60.59375 42.472656 59.9375 C 42.085938 59.273438 41.65625 58.597656 41.207031 57.914062 L 39.957031 57.914062 L 39.957031 62 L 37.550781 62 L 37.550781 51.070312 C 37.78125 51.019531 38.035156 50.980469 38.3125 50.9375 C 38.601562 50.898438 38.878906 50.867188 39.167969 50.847656 C 39.457031 50.832031 39.734375 50.808594 39.988281 50.800781 C 40.253906 50.785156 40.484375 50.785156 40.679688 50.785156 M 42.808594 54.398438 C 42.808594 53.816406 42.609375 53.386719 42.21875 53.109375 C 41.832031 52.835938 41.3125 52.699219 40.679688 52.699219 C 40.582031 52.699219 40.476562 52.707031 40.34375 52.714844 C 40.210938 52.714844 40.082031 52.730469 39.957031 52.753906 L 39.957031 56.082031 L 40.484375 56.082031 C 41.304688 56.082031 41.894531 55.945312 42.257812 55.65625 C 42.628906 55.359375 42.808594 54.941406 42.808594 54.398438 "/>
<path style=" stroke:none;fill-rule:evenodd;fill:rgb(97.647059%,97.647059%,97.647059%);fill-opacity:1;" d="M 18 0 L 24 0 L 24 6 L 18 6 Z M 18 0 "/>
<path style=" stroke:none;fill-rule:evenodd;fill:rgb(97.647059%,97.647059%,97.647059%);fill-opacity:1;" d="M 24 6 L 30 6 L 30 12 L 24 12 Z M 24 6 "/>
<path style=" stroke:none;fill-rule:evenodd;fill:rgb(97.647059%,97.647059%,97.647059%);fill-opacity:1;" d="M 18 12 L 24 12 L 24 18 L 18 18 Z M 18 12 "/>
<path style=" stroke:none;fill-rule:evenodd;fill:rgb(97.647059%,97.647059%,97.647059%);fill-opacity:1;" d="M 24 18 L 30 18 L 30 24 L 24 24 Z M 24 18 "/>
<path style=" stroke:none;fill-rule:evenodd;fill:rgb(97.647059%,97.647059%,97.647059%);fill-opacity:1;" d="M 18 24 L 24 24 L 24 30 L 18 30 Z M 18 24 "/>
<path style=" stroke:none;fill-rule:evenodd;fill:rgb(97.647059%,97.647059%,97.647059%);fill-opacity:1;" d="M 18 32 L 30 32 L 30 44 L 18 44 Z M 18 32 "/>
</g>
</svg>

<svg xmlns="http://www.w3.org/2000/svg" viewBox="0 0 64 64">
 <g>
  <path d="m 10.672 0 c -1.375 0 -2.672 1.355 -2.672 2.789 l 0 58.42 c 0 1.355 1.375 2.789 2.672 2.789 l 42.656 0 c 1.297 0 2.672 -1.434 2.672 -2.789 l 0 -43.21 l -18 -18 m -27.328 0" style="fill:#c19553;fill-opacity:1;stroke:none;fill-rule:nonzero"/>
  <path d="m 8 48 l 0 13.336 c 0 1.297 1.375 2.664 2.664 2.664 l 42.672 0 c 1.289 0 2.664 -1.367 2.664 -2.664 l 0 -13.336 m -48 0" style="fill:#000;fill-opacity:0.196;stroke:none;fill-rule:nonzero"/>
  <path d="m 21.13 50.781 c 0.691 0 1.316 0.066 1.875 0.215 c 0.559 0.141 1.043 0.363 1.445 0.668 c 0.402 0.293 0.715 0.672 0.922 1.141 c 0.223 0.453 0.328 0.996 0.328 1.609 c 0 0.652 -0.141 1.234 -0.426 1.762 c -0.289 0.523 -0.766 0.926 -1.422 1.199 c 0.215 0.313 0.453 0.656 0.699 1.043 c 0.246 0.367 0.492 0.762 0.723 1.184 c 0.238 0.402 0.461 0.813 0.664 1.23 c 0.223 0.41 0.41 0.797 0.566 1.168 l -2.523 0 c -0.293 -0.715 -0.648 -1.406 -1.051 -2.063 c -0.395 -0.664 -0.813 -1.34 -1.273 -2.023 l -1.25 0 l 0 4.086 l -2.406 0 l 0 -10.93 c 0.238 -0.051 0.492 -0.09 0.766 -0.133 c 0.285 -0.039 0.574 -0.07 0.863 -0.09 c 0.285 -0.016 0.559 -0.039 0.82 -0.047 c 0.254 -0.016 0.484 -0.016 0.68 -0.016 m 2.129 3.613 c 0 -0.582 -0.195 -1.012 -0.582 -1.289 c -0.395 -0.273 -0.902 -0.41 -1.547 -0.41 c -0.09 0 -0.203 0.008 -0.336 0.016 c -0.121 0 -0.254 0.016 -0.387 0.039 l 0 3.328 l 0.527 0 c 0.82 0 1.414 -0.137 1.785 -0.426 c 0.359 -0.297 0.539 -0.715 0.539 -1.258" style="fill:#fff;fill-opacity:1;stroke:none;fill-rule:nonzero"/>
  <path d="m 42 18 l 14 14 l 0 -14 m -14 0" style="fill:#000;fill-opacity:0.196;stroke:none;fill-rule:nonzero"/>
  <path d="m 33.738 62 l -0.57 -2.563 l -3.219 0 l -0.551 2.563 l -2.5 0 c 0.566 -2.188 1.152 -4.176 1.734 -5.965 c 0.594 -1.809 1.16 -3.52 1.703 -5.129 l 2.621 0 c 0.574 1.629 1.141 3.352 1.699 5.176 c 0.574 1.816 1.125 3.789 1.66 5.918 l -2.578 0 m -2.156 -8.941 c -0.121 0.418 -0.246 0.813 -0.367 1.199 c -0.102 0.371 -0.207 0.742 -0.313 1.109 c -0.09 0.363 -0.184 0.723 -0.273 1.094 c -0.082 0.371 -0.156 0.758 -0.238 1.152 l 2.367 0 c -0.074 -0.395 -0.156 -0.781 -0.23 -1.152 c -0.082 -0.371 -0.172 -0.73 -0.277 -1.094 c -0.09 -0.367 -0.191 -0.738 -0.313 -1.109 c -0.098 -0.387 -0.223 -0.781 -0.355 -1.199" style="fill:#fff;fill-opacity:1;stroke:none;fill-rule:nonzero"/>
  <path d="m 38 0 l 17.984 18 l -15.227 0 c -1.348 0 -2.758 -1.426 -2.758 -2.773 m 0 -15.227" style="fill:#fff;fill-opacity:0.392;stroke:none;fill-rule:nonzero"/>
  <path d="m 40.68 50.781 c 0.691 0 1.316 0.066 1.875 0.215 c 0.559 0.141 1.043 0.363 1.445 0.668 c 0.402 0.293 0.707 0.672 0.922 1.141 c 0.219 0.453 0.328 0.996 0.328 1.609 c 0 0.652 -0.141 1.234 -0.43 1.762 c -0.285 0.523 -0.762 0.926 -1.43 1.199 c 0.223 0.313 0.461 0.656 0.707 1.043 c 0.246 0.367 0.484 0.762 0.723 1.184 c 0.23 0.402 0.453 0.813 0.668 1.23 c 0.223 0.41 0.41 0.797 0.566 1.168 l -2.523 0 c -0.305 -0.715 -0.648 -1.406 -1.059 -2.063 c -0.387 -0.664 -0.816 -1.34 -1.266 -2.023 l -1.25 0 l 0 4.086 l -2.406 0 l 0 -10.93 c 0.23 -0.051 0.484 -0.09 0.762 -0.133 c 0.289 -0.039 0.566 -0.07 0.855 -0.09 c 0.289 -0.016 0.566 -0.039 0.82 -0.047 c 0.266 -0.016 0.496 -0.016 0.691 -0.016 m 2.129 3.613 c 0 -0.582 -0.199 -1.012 -0.59 -1.289 c -0.387 -0.273 -0.906 -0.41 -1.539 -0.41 c -0.098 0 -0.203 0.008 -0.336 0.016 c -0.133 0 -0.262 0.016 -0.387 0.039 l 0 3.328 l 0.527 0 c 0.82 0 1.41 -0.137 1.773 -0.426 c 0.371 -0.297 0.551 -0.715 0.551 -1.258" style="fill:#fff;fill-opacity:1;stroke:none;fill-rule:nonzero"/>
  <path d="m 18 0 l 6 0 l 0 6 l -6 0 m 0 -6" style="fill:#f9f9f9;fill-opacity:1;stroke:none;fill-rule:evenodd"/>
  <path d="m 24 6 l 6 0 l 0 6 l -6 0 m 0 -6" style="fill:#f9f9f9;fill-opacity:1;stroke:none;fill-rule:evenodd"/>
  <path d="m 18 12 l 6 0 l 0 6 l -6 0 m 0 -6" style="fill:#f9f9f9;fill-opacity:1;stroke:none;fill-rule:evenodd"/>
  <path d="m 24 18 l 6 0 l 0 6 l -6 0 m 0 -6" style="fill:#f9f9f9;fill-opacity:1;stroke:none;fill-rule:evenodd"/>
  <path d="m 18 24 l 6 0 l 0 6 l -6 0 m 0 -6" style="fill:#f9f9f9;fill-opacity:1;stroke:none;fill-rule:evenodd"/>
  <path d="m 18 32 l 12 0 l 0 12 l -12 0 m 0 -12" style="fill:#f9f9f9;fill-opacity:1;stroke:none;fill-rule:evenodd"/>
 </g>
</svg>
